Origami/32x32/apps/babe.svg

<svg width="32" height="32" version="1" xmlns="http://www.w3.org/2000/svg">
 <path d="m9 6c-1.2704926 0.001045-2.40259 0.8021975-2.8261719 2h-2.1738281c-1.6567856 1.657e-4 -2.9998343 1.3432144-3 3v10c1.657e-4 1.656786 1.3432144 2.999834 3 3h2.1757812c0.4233423 1.197128 1.5544432 1.998129 2.8242188 2h2c1.66e-4 1.656786 1.343214 2.999834 3 3h3c1.656786-1.66e-4 2.999834-1.343214 3-3h2c1.270493-1e-3 2.40259-0.802197 2.826172-2h2.173828c1.656786-1.66e-4 2.999834-1.343214 3-3v-10c-1.66e-4 -1.6567856-1.343214-2.9998343-3-3h-2.175781c-0.423342-1.1971278-1.554443-1.9981288-2.824219-2h-3c-1.656786 1.657e-4 -2.999834 1.3432144-3 3h-1c-1.66e-4 -1.6567856-1.343214-2.9998343-3-3z" style="opacity:.2"/>
 <path d="m9 5c-1.2704926 0.001045-2.40259 0.8021975-2.8261719 2h-2.1738281c-1.6567856 1.657e-4 -2.9998343 1.3432144-3 3v10c1.657e-4 1.656786 1.3432144 2.999834 3 3h2.1757812c0.4233423 1.197128 1.5544432 1.998129 2.8242188 2h2c1.66e-4 1.656786 1.343214 2.999834 3 3h3c1.656786-1.66e-4 2.999834-1.343214 3-3h2c1.270493-1e-3 2.40259-0.802197 2.826172-2h2.173828c1.656786-1.66e-4 2.999834-1.343214 3-3v-10c-1.66e-4 -1.6567856-1.343214-2.9998343-3-3h-2.175781c-0.423342-1.1971278-1.554443-1.9981288-2.824219-2h-3c-1.656786 1.657e-4 -2.999834 1.3432144-3 3h-1c-1.66e-4 -1.6567856-1.343214-2.9998343-3-3z" style="fill:#f85b79"/>
 <g transform="translate(0,1)" style="opacity:.2">
  <path d="m4 10v2h3v-2h-3z"/>
  <path d="m4 14v2h3v-2h-3z"/>
  <path d="m4 18v2h3v-2h-3z"/>
  <path d="m9 8v2h3v-2h-3z"/>
  <path d="m9 12v2h3v-2h-3z"/>
  <path d="m9 16v2h3v-2h-3z"/>
  <path d="m9 20v2h3v-2h-3z"/>
  <path d="m14 11v2h3v-2h-3z"/>
  <path d="m14 15v2h3v-2h-3z"/>
  <path d="m14 19v2h3v-2h-3z"/>
  <path d="m14 23v2h3v-2h-3z"/>
  <path d="m27 10v2h-3v-2h3z"/>
  <path d="m27 14v2h-3v-2h3z"/>
  <path d="m27 18v2h-3v-2h3z"/>
  <path d="m22 8v2h-3v-2h3z"/>
  <path d="m22 12v2h-3v-2h3z"/>
  <path d="m22 16v2h-3v-2h3z"/>
  <path d="m22 20v2h-3v-2h3z"/>
 </g>
 <path d="m9 8v2h3v-2h-3zm10 0v2h3v-2h-3zm-15 2v2h3v-2h-3zm20 0v2h3v-2h-3zm-10 1v2h3v-2h-3zm-5 1v2h3v-2h-3zm10 0v2h3v-2h-3zm-15 2v2h3v-2h-3zm20 0v2h3v-2h-3zm-10 1v2h3v-2h-3zm-5 1v2h3v-2h-3zm10 0v2h3v-2h-3zm-15 2v2h3v-2h-3zm20 0v2h3v-2h-3zm-10 1v2h3v-2h-3zm-5 1v2h3v-2h-3zm10 0v2h3v-2h-3zm-5 3v2h3v-2h-3z" style="fill:#ffffff"/>
 <path d="m9 5c-1.2704926 0.001045-2.40259 0.8021975-2.8261719 2h-2.1738281c-1.6567856 1.657e-4 -2.9998343 1.3432144-3 3v1c1.657e-4 -1.6567856 1.3432144-2.9998343 3-3h2.1738281c0.4235819-1.1978025 1.5556793-1.998955 2.8261719-2h3c1.656786 1.657e-4 2.999834 1.3432144 3 3h1c1.66e-4 -1.6567856 1.343214-2.9998343 3-3h3c1.269776 0.0018712 2.400877 0.8028722 2.824219 2h2.175781c1.656786 1.657e-4 2.999834 1.3432144 3 3v-1c-1.66e-4 -1.6567856-1.343214-2.9998343-3-3h-2.175781c-0.423342-1.1971278-1.554443-1.9981288-2.824219-2h-3c-1.656786 1.657e-4 -2.999834 1.3432144-3 3h-1c-1.66e-4 -1.6567856-1.343214-2.9998343-3-3h-3z" style="fill:#ffffff;opacity:.2"/>
</svg>

<svg xmlns="http://www.w3.org/2000/svg" width="32" height="32" version="1">
 <path style="opacity:0.2" d="M 9,6 C 7.7295074,6.001045 6.59741,6.8021975 6.1738281,8 H 4 C 2.3432144,8.0001657 1.0001657,9.3432144 1,11 v 10 c 1.657e-4,1.656786 1.3432144,2.999834 3,3 H 6.1757812 C 6.5991235,25.197128 7.7302244,25.998129 9,26 h 2 c 1.66e-4,1.656786 1.343214,2.999834 3,3 h 3 c 1.656786,-1.66e-4 2.999834,-1.343214 3,-3 h 2 c 1.270493,-0.001 2.40259,-0.802197 2.826172,-2 H 27 c 1.656786,-1.66e-4 2.999834,-1.343214 3,-3 V 11 C 29.999834,9.3432144 28.656786,8.0001657 27,8 H 24.824219 C 24.400877,6.8028722 23.269776,6.0018712 22,6 h -3 c -1.656786,1.657e-4 -2.999834,1.3432144 -3,3 H 15 C 14.999834,7.3432144 13.656786,6.0001657 12,6 Z"/>
 <path style="fill:#f85b79" d="M 9,5 C 7.7295074,5.001045 6.59741,5.8021975 6.1738281,7 H 4 C 2.3432144,7.0001657 1.0001657,8.3432144 1,10 v 10 c 1.657e-4,1.656786 1.3432144,2.999834 3,3 H 6.1757812 C 6.5991235,24.197128 7.7302244,24.998129 9,25 h 2 c 1.66e-4,1.656786 1.343214,2.999834 3,3 h 3 c 1.656786,-1.66e-4 2.999834,-1.343214 3,-3 h 2 c 1.270493,-0.001 2.40259,-0.802197 2.826172,-2 H 27 c 1.656786,-1.66e-4 2.999834,-1.343214 3,-3 V 10 C 29.999834,8.3432144 28.656786,7.0001657 27,7 H 24.824219 C 24.400877,5.8028722 23.269776,5.0018712 22,5 h -3 c -1.656786,1.657e-4 -2.999834,1.3432144 -3,3 H 15 C 14.999834,6.3432144 13.656786,5.0001657 12,5 Z"/>
 <g style="opacity:0.2" transform="translate(0,1)">
  <path d="m 4,10 c 0,0.666674 0,1.333326 0,2 1.0000005,0 2,0 3,0 0,-0.666674 0,-1.333326 0,-2 -1,0 -1.9999995,0 -3,0 z"/>
  <path d="m 4,14 c 0,0.666674 0,1.333326 0,2 1.0000005,0 2,0 3,0 0,-0.666674 0,-1.333326 0,-2 -1,0 -1.9999995,0 -3,0 z"/>
  <path d="m 4,18 c 0,0.666674 0,1.333326 0,2 1.0000005,0 2,0 3,0 0,-0.666674 0,-1.333326 0,-2 -1,0 -1.9999995,0 -3,0 z"/>
  <path d="m 9,8 c 0,0.666674 0,1.333326 0,2 1.000001,0 2,0 3,0 0,-0.666674 0,-1.333326 0,-2 -1,0 -1.999999,0 -3,0 z"/>
  <path d="m 9,12 c 0,0.666674 0,1.333326 0,2 1.000001,0 2,0 3,0 0,-0.666674 0,-1.333326 0,-2 -1,0 -1.999999,0 -3,0 z"/>
  <path d="m 9,16 c 0,0.666674 0,1.333326 0,2 1.000001,0 2,0 3,0 0,-0.666674 0,-1.333326 0,-2 -1,0 -1.999999,0 -3,0 z"/>
  <path d="m 9,20 c 0,0.666674 0,1.333326 0,2 1.000001,0 2,0 3,0 0,-0.666674 0,-1.333326 0,-2 -1,0 -1.999999,0 -3,0 z"/>
  <path d="m 14,11 c 0,0.666674 0,1.333326 0,2 1.000001,0 2,0 3,0 0,-0.666674 0,-1.333326 0,-2 -1,0 -1.999999,0 -3,0 z"/>
  <path d="m 14,15 c 0,0.666674 0,1.333326 0,2 1.000001,0 2,0 3,0 0,-0.666674 0,-1.333326 0,-2 -1,0 -1.999999,0 -3,0 z"/>
  <path d="m 14,19 c 0,0.666674 0,1.333326 0,2 1.000001,0 2,0 3,0 0,-0.666674 0,-1.333326 0,-2 -1,0 -1.999999,0 -3,0 z"/>
  <path d="m 14,23 c 0,0.666674 0,1.333326 0,2 1.000001,0 2,0 3,0 0,-0.666674 0,-1.333326 0,-2 -1,0 -1.999999,0 -3,0 z"/>
  <path d="m 27,10 c 0,0.666674 0,1.333326 0,2 -1,0 -2,0 -3,0 0,-0.666674 0,-1.333326 0,-2 1,0 2,0 3,0 z"/>
  <path d="m 27,14 c 0,0.666674 0,1.333326 0,2 -1,0 -2,0 -3,0 0,-0.666674 0,-1.333326 0,-2 1,0 2,0 3,0 z"/>
  <path d="m 27,18 c 0,0.666674 0,1.333326 0,2 -1,0 -2,0 -3,0 0,-0.666674 0,-1.333326 0,-2 1,0 2,0 3,0 z"/>
  <path d="m 22,8 c 0,0.666674 0,1.333326 0,2 -1.000001,0 -2,0 -3,0 0,-0.666674 0,-1.333326 0,-2 1,0 1.999999,0 3,0 z"/>
  <path d="m 22,12 c 0,0.666674 0,1.333326 0,2 -1.000001,0 -2,0 -3,0 0,-0.666674 0,-1.333326 0,-2 1,0 1.999999,0 3,0 z"/>
  <path d="m 22,16 c 0,0.666674 0,1.333326 0,2 -1.000001,0 -2,0 -3,0 0,-0.666674 0,-1.333326 0,-2 1,0 1.999999,0 3,0 z"/>
  <path d="m 22,20 c 0,0.666674 0,1.333326 0,2 -1.000001,0 -2,0 -3,0 0,-0.666674 0,-1.333326 0,-2 1,0 1.999999,0 3,0 z"/>
 </g>
 <path style="fill:#ffffff" d="M 9 8 L 9 10 L 12 10 L 12 8 L 9 8 z M 19 8 L 19 10 L 22 10 L 22 8 L 19 8 z M 4 10 L 4 12 L 7 12 L 7 10 L 4 10 z M 24 10 L 24 12 L 27 12 L 27 10 L 24 10 z M 14 11 L 14 13 L 17 13 L 17 11 L 14 11 z M 9 12 L 9 14 L 12 14 L 12 12 L 9 12 z M 19 12 L 19 14 L 22 14 L 22 12 L 19 12 z M 4 14 L 4 16 L 7 16 L 7 14 L 4 14 z M 24 14 L 24 16 L 27 16 L 27 14 L 24 14 z M 14 15 L 14 17 L 17 17 L 17 15 L 14 15 z M 9 16 L 9 18 L 12 18 L 12 16 L 9 16 z M 19 16 L 19 18 L 22 18 L 22 16 L 19 16 z M 4 18 L 4 20 L 7 20 L 7 18 L 4 18 z M 24 18 L 24 20 L 27 20 L 27 18 L 24 18 z M 14 19 L 14 21 L 17 21 L 17 19 L 14 19 z M 9 20 L 9 22 L 12 22 L 12 20 L 9 20 z M 19 20 L 19 22 L 22 22 L 22 20 L 19 20 z M 14 23 L 14 25 L 17 25 L 17 23 L 14 23 z"/>
 <path style="opacity:0.2;fill:#ffffff" d="M 9 5 C 7.7295074 5.001045 6.59741 5.8021975 6.1738281 7 L 4 7 C 2.3432144 7.0001657 1.0001657 8.3432144 1 10 L 1 11 C 1.0001657 9.3432144 2.3432144 8.0001657 4 8 L 6.1738281 8 C 6.59741 6.8021975 7.7295074 6.001045 9 6 L 12 6 C 13.656786 6.0001657 14.999834 7.3432144 15 9 L 16 9 C 16.000166 7.3432144 17.343214 6.0001657 19 6 L 22 6 C 23.269776 6.0018712 24.400877 6.8028722 24.824219 8 L 27 8 C 28.656786 8.0001657 29.999834 9.3432144 30 11 L 30 10 C 29.999834 8.3432144 28.656786 7.0001657 27 7 L 24.824219 7 C 24.400877 5.8028722 23.269776 5.0018712 22 5 L 19 5 C 17.343214 5.0001657 16.000166 6.3432144 16 8 L 15 8 C 14.999834 6.3432144 13.656786 5.0001657 12 5 L 9 5 z"/>
</svg>
